X:4
T:O'Carolan's Concerto
T:Mrs. Power
R:carolan
C:Turlough O'Carolan (1670-1738)
Z:id:hn-carolan-4
M:2/4
K:D
d2dd d2cB | ABGA F2A2 | E2A2 D2A2 | Bcde dcBA |
d2a2 fgaf | efge fgaf | gabg fdfa | gfed dcBA |
BGBd gBgB | AFAd fAfA | GEGB efed | cdBc A2AG |
FGAF EFGE | FGAF GABG | A2d2 fedc | d2dc d4 :|
|: d2b2 agfe | d2a2 c2g2 | B2gB ABcd | ecBA d3f |
edcB caaa | Bggg Afff | edcB caaa | Bggg bgbg |
afaf edcB | cABG AFGE | DAFA DAFA | GEBE GEBE |
FAdc BAGF | EFGA BcdB | A2d2 fedc | d2dc d4 :|
<end>
<start>
